packages/foundations/assets/icons/functional/images/logos/subway_24.svg

<svg width="24" height="24" viewBox="0 0 24 24" fill="none" xmlns="http://www.w3.org/2000/svg">
<g clip-path="url(#clip0_185_1726)">
<path fill-rule="evenodd" clip-rule="evenodd" d="M18 2C20.2091 2 22 3.79086 22 6V18C22 20.2091 20.2091 22 18 22H6C3.79086 22 2 20.2091 2 18V6C2 3.79086 3.79086 2 6 2H18ZM6 4C4.94564 4 4.00549 4.84837 4.00549 6L4 18C4 19.0544 4.86314 20 6 20H18C19.0544 20 20 19.1531 20 18V6C20 4.94564 19.1376 4 18 4H6ZM9.85714 6V13.3595C9.85714 14.7035 10.8158 15.4286 12.0002 15.4286C13.1331 15.4286 14.0591 14.7651 14.1375 13.5313L14.1429 6H17.1429V13.6328C17.1429 16.8307 14.7069 18 12.0002 18C9.36284 18 6.98226 16.8872 6.86191 13.8746L6.85714 6H9.85714Z" fill="#1A1C1F"/>
</g>
<defs>
<clipPath id="clip0_185_1726">
<rect width="24" height="24" fill="white"/>
</clipPath>
</defs>
</svg>

<svg xmlns="http://www.w3.org/2000/svg" width="24" height="24" fill="none"><g clip-path="url(#a)"><path fill="#1A1C1F" fill-rule="evenodd" d="M18 2a4 4 0 0 1 4 4v12a4 4 0 0 1-4 4H6a4 4 0 0 1-4-4V6a4 4 0 0 1 4-4zM6 4a1.997 1.997 0 0 0-1.995 2L4 18c0 1.054.863 2 2 2h12a2 2 0 0 0 2-2V6c0-1.054-.862-2-2-2zm3.857 2v7.36c0 1.344.959 2.069 2.143 2.069 1.133 0 2.06-.664 2.137-1.898L14.144 6h3v7.633C17.143 16.83 14.707 18 12 18c-2.637 0-5.018-1.113-5.138-4.125L6.857 6z" clip-rule="evenodd"/></g><defs><clipPath id="a"><path fill="#fff" d="M0 0h24v24H0z"/></clipPath></defs></svg>
